!!!COM: Music21
!!!OTL: hornpipe_Chief-ONeills-Favourite
!!!OMV: hornpipe_Chief-ONeills-Favourite
**kern
*clefG2
*k[f#c#]
*D:
*M4/4
=1
8ddL
8eeJ
=
8ff#L
8eeJ
8ff#L
8ggJ
8aaL
8ff#J
8ggL
8eeJ
=
8ff#L
8ddJ
8eeL
8cc#J
8ddL
8bJ
8aL
8gJ
=
8f#L
8eJ
8dL
8eJ
8f#L
8gJ
8aL
8bJ
=
8ccnL
8aJ
8ddL
8cc#XJ
4a
8ddL
8eeJ
=
8ff#L
8eeJ
8ff#L
8ggJ
8aaL
8ff#J
8ggL
8eeJ
!!linebreak:original
=
8ff#L
8ddJ
8eeL
8cc#J
8ddL
8bJ
8aL
8gJ
=
8f#L
8eJ
8dL
8f#J
8gL
8bJ
8aL
8gJ
=
4f#
4d
4d
4ryy
=||
*M4/4
8ddL
8eeJ
=
8ff#L
8eeJ
8ff#L
8ggJ
8aaL
8ff#J
8ggL
8eeJ
=
8ff#L
8ddJ
8eeL
8cc#J
8ddL
8bJ
8aL
8gJ
!!linebreak:original
=
8f#L
8eJ
8dL
8eJ
8f#L
8gJ
8aL
8bJ
=
8ccnL
8aJ
8ddL
8cc#XJ
4a
8ddL
8eeJ
=
8ff#L
8eeJ
8ff#L
8ggJ
8aaL
8ff#J
8ggL
8eeJ
=
8ff#L
8ddJ
8eeL
8cc#J
8ddL
8bJ
8aL
8gJ
=
8f#L
8eJ
8dL
8f#J
8gL
8bJ
8aL
8gJ
!!linebreak:original
=
4f#
4d
4d
4ryy
=||
8dL
8eJ
2.ryy
=
4fn
8f#XL
8eJ
8f#L
8gJ
8aL
8bJ
=
8ccnL
8aJ
8ddL
8bJ
8ccL
8aJ
8gL
8bJ
=
8aL
8ddJ
8ddL
8eeJ
8ff#L
8ddJ
8eeL
8ddJ
=
8ccnL
8aJ
8ddL
8cc#XJ
4a
8ddL
8eeJ
!!linebreak:original
=
8ff#L
8eeJ
8ff#L
8ggJ
8aaL
8ff#J
8ggL
8eeJ
=
8ff#L
8ddJ
8eeL
8cc#J
8ddL
8bJ
8aL
8gJ
=
8f#L
8eJ
8dL
8f#J
8gL
8bJ
8aL
8gJ
=
4f#
4d
4d
4ryy
=||
8dL
8eJ
2.ryy
=
4fn
8f#XL
8eJ
8f#L
8gJ
8aL
8bJ
!!linebreak:original
=
8ccnL
8aJ
8ddL
8bJ
8ccL
8aJ
8gL
8bJ
=
8aL
8ddJ
8ddL
8eeJ
8ff#L
8ddJ
8eeL
8ddJ
=
8ccnL
8aJ
8ddL
8cc#XJ
4a
8ddL
8eeJ
=
8ff#L
8eeJ
8ff#L
8ggJ
8aaL
8ff#J
8ggL
8eeJ
=
8ff#L
8ddJ
8eeL
8cc#J
8ddL
8bJ
8aL
8gJ
!!linebreak:original
=
8f#L
8eJ
8dL
8f#J
8gL
8bJ
8aL
8gJ
=
4f#
4d
4d
4ryy
=||
*-
